src/lib/packages/icons/src/assets/line/arrow-back-alt.svg

<svg width="24" height="24" viewBox="0 0 24 24" fill="none" xmlns="http://www.w3.org/2000/svg">
<path d="M21.1731 15.73C21.1141 15.744 21.057 15.75 20.999 15.75C20.659 15.75 20.352 15.5181 20.27 15.1731C19.374 11.3911 16.0241 8.75 12.1201 8.75C8.98312 8.75 6.13491 10.524 4.71191 13.25H7.00488C7.41888 13.25 7.75488 13.586 7.75488 14C7.75488 14.414 7.41888 14.75 7.00488 14.75H3C2.586 14.75 2.25 14.414 2.25 14V10C2.25 9.586 2.586 9.25 3 9.25C3.414 9.25 3.75 9.586 3.75 10V11.8999C5.525 9.0579 8.67712 7.25 12.1201 7.25C16.7231 7.25 20.674 10.3659 21.729 14.8269C21.825 15.2299 21.5761 15.634 21.1731 15.73Z" fill="currentColor"/>
</svg>

<svg xmlns="http://www.w3.org/2000/svg" width="24" height="24" fill="none"><path fill="currentColor" d="M21.173 15.73a.75.75 0 0 1-.903-.557c-.896-3.782-4.246-6.423-8.15-6.423a8.382 8.382 0 0 0-7.408 4.5h2.293a.75.75 0 0 1 0 1.5H3a.75.75 0 0 1-.75-.75v-4a.75.75 0 0 1 1.5 0v1.9a9.894 9.894 0 0 1 8.37-4.65c4.603 0 8.554 3.116 9.609 7.577a.75.75 0 0 1-.556.903Z"/></svg>
